imgs/pics/tw_pic.svg

<svg width="22" height="16" viewBox="0 0 22 16" fill="none" xmlns="http://www.w3.org/2000/svg">
<path d="M19.5074 7.11334C20.743 7.00572 21.5811 6.41271 21.9036 5.60809C21.4579 5.89714 20.0743 6.21227 19.3102 5.91215C19.2728 5.72262 19.231 5.54258 19.1899 5.38005C18.6077 3.12304 16.6142 1.3047 14.5254 1.52437C14.6944 1.45233 14.8658 1.38527 15.0367 1.32506C15.2666 1.23812 16.6156 1.00642 16.4031 0.503749C16.2241 0.061612 14.576 0.837889 14.2657 0.939352C14.6753 0.776709 15.3528 0.496945 15.4254 0C14.7978 0.0908789 14.1817 0.404122 13.7056 0.859596C13.8775 0.664285 14.0079 0.426261 14.0356 0.170094C12.3617 1.29903 11.3838 3.57506 10.5925 5.78288C9.97117 5.14716 9.42045 4.64654 8.9264 4.36856C7.54042 3.58391 5.88325 2.76524 3.28187 1.74576C3.20202 2.65439 3.70753 3.86254 5.16414 4.66598C4.84856 4.62138 4.27144 4.7209 3.80988 4.83759C3.99785 5.87851 4.61174 6.73611 6.27366 7.15081C5.51416 7.20373 5.12164 7.38619 4.7659 7.77946C5.11182 8.50341 5.95593 9.35545 7.47439 9.18055C5.78617 9.94873 6.78602 11.3713 8.15973 11.1591C5.81629 13.7145 2.1216 13.5267 0 11.3894C5.53937 19.358 17.5807 16.102 19.3751 8.42673C20.7196 8.43883 21.5099 7.93508 22 7.37971C21.2254 7.51849 20.1027 7.37507 19.5074 7.11334Z" fill="#A07B50"/>
</svg>

<svg xmlns="http://www.w3.org/2000/svg" width="22" height="16" fill="none"><path fill="#A07B50" d="M19.507 7.113c1.236-.107 2.074-.7 2.397-1.505-.446.29-1.83.604-2.594.304-.037-.19-.079-.37-.12-.532-.582-2.257-2.576-4.075-4.665-3.856.17-.072.34-.139.512-.199.23-.087 1.579-.319 1.366-.821-.179-.442-1.827.334-2.137.435.41-.162 1.087-.442 1.16-.939a3.202 3.202 0 0 0-1.72.86c.171-.196.302-.434.33-.69-1.674 1.129-2.652 3.405-3.444 5.613-.62-.636-1.172-1.136-1.666-1.414-1.386-.785-3.043-1.604-5.644-2.623-.08.908.426 2.117 1.882 2.92-.315-.045-.893.055-1.354.172.188 1.04.802 1.898 2.464 2.313-.76.053-1.152.235-1.508.628.346.724 1.19 1.576 2.708 1.402-1.688.768-.688 2.19.686 1.978a5.616 5.616 0 0 1-8.16.23c5.54 7.969 17.58 4.713 19.375-2.962C20.72 8.439 21.51 7.935 22 7.38c-.775.138-1.897-.005-2.493-.267Z"/></svg>
